packages/sources/icons/src/vitamix/stamp.svg

<svg width="24" height="24" viewBox="0 0 24 24" fill="none" xmlns="http://www.w3.org/2000/svg">
<path fill-rule="evenodd" clip-rule="evenodd" d="M18.7354 17.1029L18.75 17.25C18.75 18.414 18.4136 18.75 17.25 18.75H6.75C5.58579 18.75 5.25 18.4142 5.25 17.25L5.26456 17.1029L6.00497 13.4009C6.07271 12.7169 6.82144 12 7.5 12H9.60525C9.6596 11.8614 9.70186 11.6379 9.72532 11.3531C9.74539 11.1094 9.75 10.899 9.75 10.5043C9.75 10.218 9.64816 9.99802 9.43138 9.7513C9.37545 9.68765 9.32777 9.63833 9.21991 9.53057C8.56644 8.8777 8.25 8.36305 8.25 7.49817C8.25 6.80371 8.2688 6.38772 8.35303 5.87971C8.48448 5.08691 8.7497 4.43806 9.22056 3.96878C10.0238 3.16828 10.6907 3 12 3C12.8656 2.99999 13.2708 3.04502 13.8105 3.2868C14.157 3.44202 14.4785 3.66696 14.7811 3.97043C15.2495 4.44019 15.5143 5.08719 15.646 5.87634C15.731 6.386 15.75 6.8033 15.75 7.5C15.75 8.19259 15.4957 8.74108 15.057 9.23998C14.9736 9.33482 14.9107 9.39986 14.7805 9.53019C14.562 9.74878 14.25 10.3385 14.25 10.5C14.25 10.8961 14.2547 11.1076 14.275 11.3526C14.2985 11.6375 14.3409 11.8612 14.3954 12H16.5C17.1829 12 17.9284 12.7148 17.9952 13.4015L18.7354 17.1029ZM16.5145 13.6471L16.4999 13.5H14.2499C13.2375 13.5 12.8811 12.6968 12.78 11.4764C12.7553 11.1776 12.7499 10.9362 12.7499 10.5C12.7499 9.88039 13.2452 8.94431 13.7195 8.46981C13.8277 8.36151 13.8747 8.31284 13.9305 8.24947C14.1481 8.00204 14.2499 7.78228 14.2499 7.5C14.2499 6.88258 14.2338 6.52717 14.1664 6.12324C14.0813 5.61348 13.9283 5.23963 13.7189 5.02957C13.5434 4.85365 13.3733 4.73458 13.1973 4.65573C12.912 4.52796 12.6604 4.49999 12.0065 4.5C11.0516 4.5 10.7313 4.58081 10.2794 5.03122C10.0705 5.23938 9.91758 5.61353 9.83277 6.12506C9.76597 6.52799 9.74995 6.88249 9.74995 7.49817C9.74995 7.85501 9.88515 8.07491 10.28 8.46943C10.4102 8.59949 10.4742 8.66564 10.5582 8.76123C10.9959 9.25944 11.2499 9.80815 11.2499 10.5C11.2499 10.9389 11.2447 11.179 11.2202 11.4762C11.1197 12.6966 10.7632 13.5 9.74995 13.5H7.49995L7.48538 13.6471L6.7648 17.25H17.2499L16.5145 13.6471ZM6 21C5.58579 21 5.25 20.6642 5.25 20.25C5.25 19.8358 5.58579 19.5 6 19.5H18C18.4142 19.5 18.75 19.8358 18.75 20.25C18.75 20.6642 18.4142 21 18 21H6Z" fill="#001018"/>
</svg>

<svg width="24" height="24" fill="none" xmlns="http://www.w3.org/2000/svg"><path fill-rule="evenodd" clip-rule="evenodd" d="m18.735 17.103.015.147c0 1.164-.336 1.5-1.5 1.5H6.75c-1.164 0-1.5-.336-1.5-1.5l.015-.147.74-3.702C6.073 12.717 6.821 12 7.5 12h2.105c.055-.139.097-.362.12-.647.02-.244.025-.454.025-.849 0-.286-.102-.506-.319-.753a4.338 4.338 0 0 0-.211-.22c-.654-.653-.97-1.168-.97-2.033 0-.694.019-1.11.103-1.618.131-.793.397-1.442.868-1.911C10.024 3.169 10.69 3 12 3c.866 0 1.27.045 1.81.287.347.155.668.38.971.683.468.47.733 1.117.865 1.906.085.51.104.927.104 1.624 0 .693-.254 1.241-.693 1.74a5.03 5.03 0 0 1-.277.29c-.218.219-.53.809-.53.97 0 .396.005.608.025.853.024.284.066.508.12.647H16.5c.683 0 1.428.715 1.495 1.402l.74 3.7zm-2.22-3.456L16.5 13.5h-2.25c-1.012 0-1.369-.803-1.47-2.024-.025-.298-.03-.54-.03-.976 0-.62.495-1.556.97-2.03.108-.108.155-.157.21-.22.218-.248.32-.468.32-.75 0-.617-.016-.973-.084-1.377-.085-.51-.238-.883-.447-1.093a1.741 1.741 0 0 0-.522-.374c-.285-.128-.537-.156-1.19-.156-.955 0-1.276.08-1.728.531-.209.208-.361.583-.446 1.094-.067.403-.083.757-.083 1.373 0 .357.135.577.53.971.13.13.194.197.278.292.438.498.692 1.047.692 1.739 0 .439-.005.679-.03.976-.1 1.22-.457 2.024-1.47 2.024H7.5l-.015.147-.72 3.603H17.25l-.735-3.603zM6 21a.75.75 0 0 1 0-1.5h12a.75.75 0 0 1 0 1.5H6z" fill="#001018"/></svg>
